T: Girl Of The House, The
M: 6/8
L: 1/8
K: Dmix
|:AG|FAD DAG|AFA GEA|DED AGE|FAD  DAG|
EFF GFG|GAA c2A|dcA GEA|DED  D :|
|:AB|Bcc cAG|FGG GFG|AdB cAG|Ad^c dag|
fed cAG|EFA GED|dcA GEA|DED  D :|
